X: 98
T: No_58_Song_for_Working_Magic.krn
N: Derived from No_58_Song_for_Working_Magic.krn
%%abc-version 2.0
%%abcx-abcm2ps-target-version 5.9.1 (29 Sep 2008)
%%abc-creator hum2abc beta
%%abcx-conversion-date 2019/03/15 08:35:45
%%humdrum-veritas 1615381129
%%humdrum-veritas-data 1757410691
%%linebreak <none>
%%barnumbers 0
L: 1/8
M: 2/4
K: A clef=bass
[K:clef=bass][M:2/4]EE EE [I:setbarnb 2]| 
(E3/C/) CE | 
E2CE | 
(EC) C z | 
EE CC | 
(C3/A,/) A,A, | 
A,2A,A, | 
(A,F,) F, z | 
A,A, A,A, | 
(A,3/F,/) F,A, | 
A,2A,A, | 
A,2A, z :|]  



